**kern	**kern
*staff1	*staff1
*head1[head1]	*head1[head1]
*solo1[solo1]	*solo1[solo1]
*solo2[solo2]	*solo2[solo2]
*solo3[solo3]	*solo3[solo3]
=1-	=1-	!!Head
*clefG2	*clefG2
*k[]	*k[]
*B-:	*B-:
*M4/4	*M4/4
*>head1	*>head1
{8dd\L	1B-:dom
8cc\	.
8b-\	.
8a\J	.
8b-\	.
4a/	.
[8cc\	.
=2	=2
8cc\L]	1B-:dom
8b-\J	.
4r	.
4r	.
8r	.
8f/	.
=3	=3
8dd\L	1B-:dom
8cc\	.
8b-\	.
8a\J	.
8b-/L	.
8f/	.
8g/	.
8a-/J}	.
=4	=4
1r	1B-:dom
=5	=5
{8dd-\L	1E-:dom
8cc\	.
8b-\	.
8a\J	.
8b-\	.
4a/	.
[8cc\	.
=6	=6
8cc\L]	1E-:dom
8b-\J	.
4r	.
4r	.
8r	.
8f/	.
=7	=7
8dd\L	1B-:dom
8cc\	.
8b-\	.
8a\J	.
8b-/L	.
8f/	.
8g/	.
8a-/J}	.
=8	=8
1r	1G:dom
=9	=9
{8dd\L	1C:min
8cc\	.
8b-\	.
8a\J	.
8b-\	.
4a/	.
[8cc\	.
=10	=10
8cc\L]	1F:dom
8b-\J	.
4r	.
4r	.
8r	.
8f/	.
=11	=11
8dd\L	1B-:dom
8cc\	.
8b-\	.
8a\J	.
8b-/L	.
8f/	.
8g/	.
8a-/J}	.
=12	=12
2r	2C:min
8r	2F:dom
*>solo1	*>solo1
{[8a-/L	.
8a1/J]	.
32g/LLL	.
32g-/	.
32f/	.
32e-/JJJ	.
=13	=13	!!Chorus 1
8d/	1B-:dom
8r	.
4r	.
8e-/L	.
8B-/	.
8c#/	.
[8d/J	.
=14||	=14||
8d/]	1B-:dom
8r	.
8r	.
[8a-/	.
8a-/]	.
32g/LLL	.
32g-/	.
32f/	.
32e-/JJ	.
8d/J	.
8r	.
=15	=15
8r	1B-:dom
[8e-/L	.
8e-/J]	.
48d/LLL	.
48c/	.
48B-/	.
48A-/	.
48G/	.
48F/JJJ}	.
4r	.
8r	.
{[8d/	.
=16	=16
4d/]	1B-:dom
8c/L	.
8B/J	.
8B-/L	.
8A/	.
8A-/	.
8c/J	.
=17	=17
8G/L	1E-:dom
8B-/	.
8c/	.
8f/J	.
8e-/L	.
8B-/	.
8c/	.
8d-/J}	.
=18	=18
4r	1E-:dom
8r	.
{[8d/	.
4d/]	.
8d#/L	.
8e/J	.
=19	=19
4f/	1B-:dom
4r	.
24a/LL	.
24b-/	.
24a/JJ	.
8g/L	.
8f/	.
[8e-/J	.
=20	=20
8e-/L]	1G:dom
8c/	.
8B/	.
8d/J	.
8f/L	.
8a-/	.
8g/	.
8d/J	.
=21	=21
8f/L	1C:min
[8e-/J	.
4e-/]}	.
2r	.
=22	=22
8r	1F:dom
{24dd\LL	.
24cc\	.
24b-\JJ	.
8g/L	.
8f/J	.
8e-/L	.
8d/	.
8c/	.
8B-/J	.
=23	=23
16A/LL	1B-:dom
16c/	.
16e-/	.
16g-/JJ	.
4f/	.
8r	.
8A/L	.
8B-/	.
8e-/J	.
=24	=24
8d/L	2C:min
8B-/J}	.
4r	.
8r	2F:dom
{[8d/	.
4d/]	.
=25	=25	!!Chorus 2
*>solo2	*>solo2
8e-/L	1B-:dom
8B-/	.
8d/	.
8e-/J	.
24d/LL	.
24e-/	.
24d/JJ	.
8B-/L	.
8e-/	.
8B-/J	.
=26||	=26||
8d/L	1E-:dom
[8e-/J	.
4e-/]	.
4r	.
8r	.
8B-/	.
=27	=27
4e-/	1B-:dom
8e-/L	.
8d/J	.
8B-/L	.
[8A-/J	.
4A-/]}	.
=28	=28
2r	1B-:dom
{8g/L	.
8g-/	.
8f/	.
8e/J	.
=29	=29
8e-/L	1E-:dom
8A/	.
8B-/	.
8c/J	.
8d-/L	.
[8E-/J	.
4E-/]}	.
=30	=30
1r	1E-:dom
=31	=31
8r	1B-:dom
{8f#/	.
12g\L	.
12b-\	.
12dd\J	.
8ff\L	.
8ee-\	.
8dd\	.
8cc\J	.
=32	=32
8b/L	1G:dom
8d/	.
8f/	.
8g/J	.
8a-/L	.
16b-/L	.
16a-/J	.
8g/	.
8f/J	.
=33	=33
4e-/}	1C:min
4r	.
8r	.
{16dd\LL	.
16cc\JJ	.
12b-/L	.
12g/	.
12f/J	.
=34	=34
8e-/L	1F:dom
8d/	.
8c/	.
8B-/J	.
12A/L	.
12c/	.
12e-/J	.
8g-/L	.
[8f/J	.
=35	=35
4f/]	1B-:dom
4B-/	.
8d/L	.
[8e-/J	.
4e-/]}	.
=36	=36
2r	2C:min
8r	2F:dom
*>solo3	*>solo3
{8c#/	.
12d/L	.
12f/	.
12a/J	.
=37	=37
4b-\	1B-:dom
4r	.
8cc\L	.
8bn\	.
8b-\	.
8a-\J	.
=38||	=38||
8g/L	1E-:dom
8f/	.
8e-/	.
8c/J	.
8b-/L	.
8g-/	.
8e-/	.
8B/J	.
=39	=39
4B-/	1B-:dom
4r	.
8e-/L	.
8c/	.
8c#/	.
8d/J	.
=40	=40
4r	2F:min
8A-/L	.
8c/J	.
8g/L	2B-:dom
8g-/	.
8e/	.
8B/J	.
=41	=41
8c/L	1E-:dom
8d-/	.
8A-/	.
8G-/J	.
8Gn/L	.
8B-/	.
8f/	.
[8e-/J	.
=42	=42
4e-/]}	1E-:dom
4r	.
4r	.
8r	.
{[8dd-\	.
=43	=43
4.dd-\]	1B-:dom
aq/	.
[8b-\	.
8b-/L]	.
8f#/	.
8g/	.
8e-/J	.
=44	=44
4e/	1B-:dom
8c/L	.
[8d-/J	.
4d-/]}	.
4r	.
=45	=45
8r	1C:min
{16c/LL	.
16e-/J	.
8g/	.
8b-/J	.
8dd\L	.
8dd-\	.
8cc\	.
8bn\J	.
=46	=46
8b-\L	1F:dom
16cc\L	.
16b-\J	.
8a\	.
8g\J	.
8f/L	.
8e-/J	.
24d/LL	.
24e-/	.
24d/JJ	.
8c/	.
=47	=47
8A/L	1B-:dom
8B-/	.
8c/	.
8A/J	.
8B-/L	.
[8d/J	.
4d/]	.
=48	=48
4r	2C:min
8r	.
16c/LL	.
16d/JJ	.
8e-/L	2F:dom
8g-/	.
8f/	.
8e-/J	.
=49	=49
24d/LL	1B-:dom
24e-/	.
24d/JJ	.
[8B-/	.
4B-/]}	.
2r	.
==	==
*-	*-
